!!!COM: Paul Hindemith
!!!OTL: [T649_Hin-w70p62h1m1-16]
**kern	**dynam	**kern	**dynam	**kern	**dynam	**kern	**dynam	**kern	**dynam	**kern	**dynam	**kern	**dynam	**kern	**dynam	**kern	**dynam	**kern	**dynam	**kern	**dynam	**kern	**dynam
*grp:A	*	*grp:A	*	*grp:A	*	*grp:B	*	*grp:B	*	*grp:B	*	*grp:A	*	*grp:A	*	*grp:A	*	*grp:A	*	*grp:A	*	*grp:A	*
*part12	*part12	*part11	*part11	*part10	*part12	*part9	*part9	*part8	*part8	*part7	*part7	*part6	*part6	*part5	*part5	*part4	*part4	*part3	*part3	*part2	*part2	*part1	*part1
*staff12	*	*staff11	*	*staff10	*	*staff9	*	*staff8	*	*staff7	*	*staff6	*	*staff5	*	*staff4	*	*staff3	*	*staff2	*	*staff1	*
*I"Contrabass	*	*I"Violoncello	*	*I"Viola	*	*I"Violin II	*	*I"Violin I	*	*I"Solo Violin	*	*I"Triangle	*	*I"Bassoon 2.	*	*I"Bassoon 1.	*	*I"Bass Clarinet [C]	*	*I"Clarinet in Bb 2.	*	*I"Clarinet in Bb 1.	*
*I'Cb.	*	*I'Vc.	*	*I'Vla.	*	*I'Vln. II	*	*I'Vln. I	*	*I'Vln.	*	*I'Tri.	*	*I'Bsn. II	*	*I'Bsn. I	*	*I'B. Cl.	*	*I'Cl. II	*	*I'Cl. I	*
*ICstr	*	*ICstr	*	*ICstr	*	*ICstr	*	*ICstr	*	*ICstr	*	*ICidio	*	*ICww	*	*ICww	*	*ICww	*	*ICww	*	*ICww	*
*Icbass	*	*Icello	*	*Iviola	*	*Ivioln	*	*Ivioln	*	*Ivioln	*	*Itrngl	*	*Ifagot	*	*Ifagot	*	*Iclarb	*	*Iclars	*	*Iclars	*
*	*	*	*	*	*	*	*	*	*	*	*	*stria1	*	*	*	*	*	*	*	*	*	*	*
*clefF4	*	*clefF4	*	*clefC3	*	*clefG2	*	*clefG2	*	*clefG2	*	*clefX	*	*clefC4	*	*clefC4	*	*clefG2	*	*clefG2	*	*clefG2	*
*ITrd7c12	*	*	*	*	*	*	*	*	*	*	*	*	*	*	*	*	*	*ITrd1c2	*	*ITrd1c2	*	*ITrd1c2	*
*k[]	*	*k[]	*	*k[]	*	*k[]	*	*k[]	*	*k[]	*	*k[]	*	*k[]	*	*k[]	*	*k[0]	*	*k[b-e-]	*	*k[b-e-]	*
*	*	*	*	*	*	*	*	*	*	*	*	*C:	*	*	*	*	*	*	*	*	*	*	*
*M2/4	*	*M2/4	*	*M2/4	*	*M2/4	*	*M2/4	*	*M2/4	*	*M2/4	*	*M2/4	*	*M2/4	*	*M2/4	*	*M2/4	*	*M2/4	*
!!LO:REH:t=1
=1	=1	=1	=1	=1	=1	=1	=1	=1	=1	=1	=1	=1	=1	=1	=1	=1	=1	=1	=1	=1	=1	=1	=1
!	!LO:DY:ed=brack	!	!LO:DY:ed=brack	!	!LO:DY:ed=brack	!	!	!	!	!	!	!	!	!	!	!	!	!	!	!	!	!LO:TX:t=[[quarter]=152]	!
8DD-X	4ryy	8A-X	4ryy	8D-X	4ryy	2ryy	.	2ryy	.	2ryy	4ryy	2r	.	2r	.	8g-X'L	4ryy	8d-'L	4ryy	8d-X'L	4ryy	8a-X'L	4ryy
8r	.	8r	.	8r	.	.	.	.	.	.	.	.	.	.	.	8g-'J	.	8d-'J	.	8d-'J	.	8a-'J	.
4r	.	4r	.	4r	.	.	.	.	.	.	.	.	.	.	.	8r	.	8r	.	8r	.	8r	.
.	.	.	.	.	.	.	.	.	.	.	.	.	.	.	.	8g-'	.	8d-'	.	8d-'	.	8a-'	.
=2	=2	=2	=2	=2	=2	=2	=2	=2	=2	=2	=2	=2	=2	=2	=2	=2	=2	=2	=2	=2	=2	=2	=2
2r	.	2r	.	2r	.	2ryy	.	2ryy	.	4ryy	.	2r	.	2r	.	8g-X'	.	8d-'	.	8d-X'	.	8a-X'	.
.	.	.	.	.	.	.	.	.	.	.	.	.	.	.	.	8r'	.	8r'	.	8r'	.	8r'	.
.	.	.	.	.	.	.	.	.	.	16ryy	.	.	.	.	.	8g-'L	.	8d-'L	.	8d-'L	.	8a-'L	.
.	.	.	.	.	.	.	.	.	.	16ryy	.	.	.	.	.	.	.	.	.	.	.	.	.
.	.	.	.	.	.	.	.	.	.	16ryy	.	.	.	.	.	8g-'J	.	8d-'J	.	8d-'J	.	8a-'J	.
.	.	.	.	.	.	.	.	.	.	16ryy	.	.	.	.	.	.	.	.	.	.	.	.	.
=3	=3	=3	=3	=3	=3	=3	=3	=3	=3	=3	=3	=3	=3	=3	=3	=3	=3	=3	=3	=3	=3	=3	=3
2r	.	2r	.	2r	.	2ryy	.	2ryy	.	8ryy	.	2r	.	2r	.	8r'	.	8r'	.	8r'	.	8r'	.
.	.	.	.	.	.	.	.	.	.	8ryy	.	.	.	.	.	8g-X'L	.	8d-'L	.	8d-X'L	.	8a-X'L	.
.	.	.	.	.	.	.	.	.	.	8ryy	.	.	.	.	.	8g-'J	.	8d-'J	.	8d-'J	.	8a-'J	.
.	.	.	.	.	.	.	.	.	.	8ryy	.	.	.	.	.	8r'	.	8r'	.	8r'	.	8r'	.
=4	=4	=4	=4	=4	=4	=4	=4	=4	=4	=4	=4	=4	=4	=4	=4	=4	=4	=4	=4	=4	=4	=4	=4
2r	.	2r	.	2r	.	2ryy	.	2ryy	.	8ryy	.	2r	.	2r	.	8g-X'L	.	8d-'L	.	8d-X'L	.	8a-X'L	.
.	.	.	.	.	.	.	.	.	.	16ryy	.	.	.	.	.	8g-'J	.	8d-'J	.	8d-'J	.	8a-'J	.
.	.	.	.	.	.	.	.	.	.	16ryy	.	.	.	.	.	.	.	.	.	.	.	.	.
.	.	.	.	.	.	.	.	.	.	8ryy	.	.	.	.	.	8r'	.	8r'	.	8r'	.	8r'	.
.	.	.	.	.	.	.	.	.	.	8ryy	.	.	.	.	.	8g-'	.	8A-'	.	8e-'	.	8a-'	.
=5	=5	=5	=5	=5	=5	=5	=5	=5	=5	=5	=5	=5	=5	=5	=5	=5	=5	=5	=5	=5	=5	=5	=5
2r	.	2r	.	2r	.	2ryy	.	2ryy	.	16ryy	.	2r	.	2r	.	8g-X	.	8A-	.	8e-	.	8a-X	.
.	.	.	.	.	.	.	.	.	.	16ryy	.	.	.	.	.	.	.	.	.	.	.	.	.
.	.	.	.	.	.	.	.	.	.	16ryy	.	.	.	.	.	8r'	.	8r'	.	8r'	.	8r'	.
.	.	.	.	.	.	.	.	.	.	16ryy	.	.	.	.	.	.	.	.	.	.	.	.	.
.	.	.	.	.	.	.	.	.	.	4ryy	.	.	.	.	.	8g-L	.	8A-L	.	8e-L	.	8a-L	.
.	.	.	.	.	.	.	.	.	.	.	.	.	.	.	.	8g-J	.	8A-J	.	8e-J	.	8a-J	.
=6	=6	=6	=6	=6	=6	=6	=6	=6	=6	=6	=6	=6	=6	=6	=6	=6	=6	=6	=6	=6	=6	=6	=6
2r	.	2r	.	2r	.	2ryy	.	2ryy	.	8ryy	4ryy	2r	.	8r'	.	8r'	.	8r'	.	8r'	.	8r'	.
.	.	.	.	.	.	.	.	.	.	16ryy	.	.	.	8G-XL	4ryy	8g-XL	4ryy	8AXL	4ryy	8eXL	4ryy	8aL	4ryy
.	.	.	.	.	.	.	.	.	.	16ryy	.	.	.	.	.	.	.	.	.	.	.	.	.
.	.	.	.	.	.	.	.	.	.	8ryy	.	.	.	8G-J	.	8g-J	.	8AJ	.	8eJ	.	8aJ	.
.	.	.	.	.	.	.	.	.	.	8ryy	.	.	.	8r'	.	8r'	.	8r'	.	8r'	.	8r'	.
=7	=7	=7	=7	=7	=7	=7	=7	=7	=7	=7	=7	=7	=7	=7	=7	=7	=7	=7	=7	=7	=7	=7	=7
2r	.	2r	.	2r	.	2ryy	.	2ryy	.	8ryy	.	2r	.	8G-XL	.	8g-XL	.	8AXL	.	8eXL	.	8aL	.
.	.	.	.	.	.	.	.	.	.	16ryy	.	.	.	8G-J	.	8g-J	.	8AJ	.	8eJ	.	8aJ	.
.	.	.	.	.	.	.	.	.	.	16ryy	.	.	.	.	.	.	.	.	.	.	.	.	.
.	.	.	.	.	.	.	.	.	.	8ryy	.	.	.	8r'	.	8r'	.	8r'	.	8r'	.	8r'	.
.	.	.	.	.	.	.	.	.	.	8ryy	.	.	.	8G-	.	8g-	.	8A	.	8e	.	8a	.
=8	=8	=8	=8	=8	=8	=8	=8	=8	=8	=8	=8	=8	=8	=8	=8	=8	=8	=8	=8	=8	=8	=8	=8
2r	.	2r	.	2r	.	2ryy	.	2ryy	.	8ryy	.	2r	.	8G-X	.	8g-X	.	8AX	.	8eX	.	8a	.
.	.	.	.	.	.	.	.	.	.	16ryy	.	.	.	8r'	4ryy	8r'	4ryy	8r'	4ryy	8r'	4ryy	8r'	4ryy
.	.	.	.	.	.	.	.	.	.	16ryy	.	.	.	.	.	.	.	.	.	.	.	.	.
.	.	.	.	.	.	.	.	.	.	8ryy	.	.	.	8G-L	.	8g-L	.	8AL	.	8eL	.	8aL	.
.	.	.	.	.	.	.	.	.	.	8ryy	4ryy	.	.	8G-J	.	8g-J	.	8AJ	.	8eJ	.	8aJ	.
=9	=9	=9	=9	=9	=9	=9	=9	=9	=9	=9	=9	=9	=9	=9	=9	=9	=9	=9	=9	=9	=9	=9	=9
2r	.	2r	.	2r	.	2ryy	.	2ryy	.	16ryy	.	2r	.	8r'	.	8r'	.	8r'	.	8r'	.	8r'	.
.	.	.	.	.	.	.	.	.	.	16ryy	.	.	.	.	.	.	.	.	.	.	.	.	.
.	.	.	.	.	.	.	.	.	.	16ryy	.	.	.	8FL	4ryy	8fL	4ryy	8B-L	4ryy	8e-L	4ryy	8b-L	4ryy
.	.	.	.	.	.	.	.	.	.	16ryy	.	.	.	.	.	.	.	.	.	.	.	.	.
.	.	.	.	.	.	.	.	.	.	4ryy	.	.	.	8FJ	.	8fJ	.	8B-J	.	8e-J	.	8b-J	.
.	.	.	.	.	.	.	.	.	.	.	.	.	.	8r'	.	8r'	.	8r'	.	8r'	.	8r'	.
=10	=10	=10	=10	=10	=10	=10	=10	=10	=10	=10	=10	=10	=10	=10	=10	=10	=10	=10	=10	=10	=10	=10	=10
2r	.	2r	.	2r	.	4ryy	.	4ryy	.	8ryy	.	2r	.	8FL	.	8fL	.	8B-L	.	8e-L	.	8b-L	.
.	.	.	.	.	.	.	.	.	.	8ryy	.	.	.	8FJ	.	8fJ	.	8B-J	.	8e-J	.	8b-J	.
.	.	.	.	.	.	8ryy	.	8ryy	.	8ryy	.	.	.	4r	4ryy	4r	4ryy	4r	4ryy	4r	4ryy	4r	4ryy
.	.	.	.	.	.	8ryy	4ryy	8ryy	4ryy	8ryy	.	.	.	.	.	.	.	.	.	.	.	.	.
=11	=11	=11	=11	=11	=11	=11	=11	=11	=11	=11	=11	=11	=11	=11	=11	=11	=11	=11	=11	=11	=11	=11	=11
2r	.	2r	.	2r	.	8ryy	.	8ryy	.	8ryy	.	2r	.	2r	.	2r	.	2r	.	2r	.	2r	.
.	.	.	.	.	.	8ryy	.	8ryy	.	8ryy	.	.	.	.	.	.	.	.	.	.	.	.	.
.	.	.	.	.	.	8ryy	.	8ryy	.	8ryy	.	.	.	.	.	.	.	.	.	.	.	.	.
.	.	.	.	.	.	8ryy	.	8ryy	.	8ryy	.	.	.	.	.	.	.	.	.	.	.	.	.
*	*	*	*	*	*	*	*	*	*	*	*	*	*	*clefF4	*	*clefF4	*	*	*	*	*	*	*
=12	=12	=12	=12	=12	=12	=12	=12	=12	=12	=12	=12	=12	=12	=12	=12	=12	=12	=12	=12	=12	=12	=12	=12
2r	.	4r	.	2r	.	8ryy	.	8ryy	.	4.ryy	.	2r	.	4r	.	4r	.	2r	.	2r	.	2r	.
.	.	.	.	.	.	8ryy	.	8ryy	.	.	.	.	.	.	.	.	.	.	.	.	.	.	.
!	!	!LO:TX:a:t=pizz.	!	!	!	!	!	!	!	!	!	!	!	!	!	!	!	!	!	!	!	!	!
.	.	8E-X	4ryy	.	.	8ryy	.	8ryy	.	.	.	.	.	8E-X	4ryy	8E-X	4ryy	.	.	.	.	.	.
.	.	8r	.	.	.	8ryy	.	8ryy	.	8ryy	4ryy	.	.	8r	.	8r	.	.	.	.	.	.	.
=13	=13	=13	=13	=13	=13	=13	=13	=13	=13	=13	=13	=13	=13	=13	=13	=13	=13	=13	=13	=13	=13	=13	=13
2r	.	8F	.	2r	.	8ryy	4ryy	8ryy	4ryy	4.ryy	.	2r	.	8F	.	8F	.	2r	.	2r	.	2r	.
.	.	8r	.	.	.	8ryy	.	8ryy	.	.	.	.	.	8r	.	8r	.	.	.	.	.	.	.
.	.	8G-X	.	.	.	8ryy	.	8ryy	.	.	.	.	.	8G-X	.	8G-X	.	.	.	.	.	.	.
.	.	8r	.	.	.	8ryy	4ryy	8ryy	4ryy	8ryy	4ryy	.	.	8r	.	8r	.	.	.	.	.	.	.
*	*	*	*	*	*	*	*	*	*	*	*	*	*	*clefC4	*	*clefC4	*	*	*	*	*	*	*
=14	=14	=14	=14	=14	=14	=14	=14	=14	=14	=14	=14	=14	=14	=14	=14	=14	=14	=14	=14	=14	=14	=14	=14
!	!	!LO:TX:a:t=arco	!	!	!	!	!	!	!	!	!	!	!	!	!	!	!	!	!	!	!	!	!
*	*	*grp:B	*	*	*	*	*	*	*	*	*	*	*	*	*	*	*	*	*	*	*	*	*
2r	.	4ryy	4ryy	2r	.	8ryy	4ryy	8ryy	4ryy	2ryy	4ryy	8Re/	4ryy	8d-X	4ryy	8g-XL	4ryy	8d-L	4ryy	8d-XL	4ryy	8a-XL	4ryy
.	.	.	.	.	.	8ryy	.	8ryy	.	.	.	8r	.	8r	.	8g-J	.	8d-J	.	8d-J	.	8a-J	.
.	.	4ryy	.	.	.	4ryy	.	4ryy	.	.	.	8r	.	4r	.	8r	.	8r	.	8r	.	8r	.
.	.	.	.	.	.	.	.	.	.	.	.	8Re/	.	.	.	8g-	.	8d-	.	8d-	.	8a-	.
=15	=15	=15	=15	=15	=15	=15	=15	=15	=15	=15	=15	=15	=15	=15	=15	=15	=15	=15	=15	=15	=15	=15	=15
2r	.	4ryy	.	2r	.	2ryy	.	2ryy	.	4ryy	.	8Re/	.	2r	.	8g-X	.	8d-	.	8d-X	.	8a-X	.
.	.	.	.	.	.	.	.	.	.	.	.	8r	.	.	.	8r'	.	8r'	.	8r'	.	8r'	.
.	.	4ryy	.	.	.	.	.	.	.	16ryy	.	4r	.	.	.	8g-L	.	8d-L	.	8d-L	.	8a-L	.
.	.	.	.	.	.	.	.	.	.	16ryy	.	.	.	.	.	.	.	.	.	.	.	.	.
.	.	.	.	.	.	.	.	.	.	16ryy	.	.	.	.	.	8g-J	.	8d-J	.	8d-J	.	8a-J	.
.	.	.	.	.	.	.	.	.	.	16ryy	.	.	.	.	.	.	.	.	.	.	.	.	.
=16	=16	=16	=16	=16	=16	=16	=16	=16	=16	=16	=16	=16	=16	=16	=16	=16	=16	=16	=16	=16	=16	=16	=16
2r	.	4ryy	.	2r	.	2ryy	.	2ryy	.	8ryy	.	2r	.	2r	.	8r'	.	8r'	.	8r'	.	8r'	.
.	.	.	.	.	.	.	.	.	.	8ryy	.	.	.	.	.	8g-XL	.	8d-L	.	8d-XL	.	8a-XL	.
.	.	4ryy	.	.	.	.	.	.	.	8ryy	.	.	.	.	.	8g-J	.	8d-J	.	8d-J	.	8a-J	.
.	.	.	.	.	.	.	.	.	.	8ryy	.	.	.	.	.	8r'	.	8r'	.	8r'	.	8r'	.
=	=	=	=	=	=	=	=	=	=	=	=	=	=	=	=	=	=	=	=	=	=	=	=
*-	*-	*-	*-	*-	*-	*-	*-	*-	*-	*-	*-	*-	*-	*-	*-	*-	*-	*-	*-	*-	*-	*-	*-
!!!system-decoration: [([(s1,s2)]s3[(s4,s5)])]s6,s7[([(s8,s9)]s10,s11,s12)]
